!!!!SEGMENT: pl-kk--kk-i-542--001_studzinski-piotr--stabat-mater.krn
!!!cenid: 18xx:4497
!!!COM: Studziński, Piotr
!!!COM-rismID: pe50044409
!!!CDT: 1825/10/16-1869/04/20
!!!CNT: Polish
!!!OTL: Stabat Mater
!!!PDT:
!!!AGN: Sacred
!!!YEC: Copyright 2022 Narodowy Instytut Fryderyka Chopina (https://polishscores.org)
!!!YEM: License CC-BY-4.0 (https://creativecommons.org/licenses/by/4.0)
!!!SMS-siglum: PL-Kk
!!!SMS-shelfmark: Kk.I.542
!!!SMS-variant:
!!!SMS-altvar:
!!!SMS-shelfwork: 001 W
!!!NIFC-rismSourceID: 1001210825
!!!NIFC-rismChildID: 1001210826
!!!NIFC-islandoraID: pl-kk:16985
!!!URL-pdf-islandora: https://repozytorium.nifc.pl/islandora/object/pl-kk%3A16982/datastream/PDF/view
!!!URL-scan: https://polish.musicsources.pl/pl/lokalizacje/galeria/rekopisy/7169/1 @EN{Scan on Polish Music Sources Website} @PL{Skany w portalu Dziedzictwo Muzyki Polskiej w otwartym dostępie}
!!!IIIF:
!!!ONB-nifc:
!!!AIN: 1 bass
!!!key:
**kern	**text	**dynam
*I"Basso.	*	*
*I'B	*	*
*Ibass	*	*
*ICvox	*	*
*clefF4	*	*
*k[f#]	*	*
*e:	*	*
*M3/4	*	*
=1	=1	=1
!	!	!LO:DY:a
2E\	Sta-	p <
4E\	-bat	[[
=2	=2	=2
!	!	!LO:DY:a
2D#X\	Ma-	>
4D#\	-ter	]]
=3	=3	=3
(4E\	do-	.
4AA/)	.	.
4AA/	-lo-	.
=4	=4	=4
4BB/	-ro-	.
4E\	-sa	.
4r	.	.
=5	=5	=5
2E\	Jux-	.
4E\	-ta	.
=6	=6	=6
2F#X\	cru-	.
4F#\	-cem	.
=7	=7	=7
(4G\	la-	.
4C/)	.	.
4C/	-cri-	.
=8	=8	=8
4D\	-mo-	.
4G\	-sa	.
4r	.	.
=9	=9	=9
!LO:TX:a:t=solo	!	!
8B\	Dum	.
8B\	pen-	.
4B\	-de-	.
4B\	-bat	.
=10	=10	=10
2c\	fi-	.
4c\	-li-	.
=11	=11	=11
4B\	-us	.
8BB/	Dum	.
8BB/	pen-	.
8BB/	-de-	.
8BB/	-bat	.
=12	=12	=12
2C/	fi-	.
4C/	-li-	.
=13	=13	=13
4C/	-us	.
4C/	E-	.
4C/	-ja	.
=14	=14	=14
2BB/	Ma-	.
4BB/	-ter	.
=15	=15	=15
2C/	fons	.
4C/	a-	.
=16	=16	=16
(2C#X/	-mo-	.
4C#/)	.	.
=17	=17	=17
2.D\	-ris	.
=18	=18	=18
4r	.	.
4D#X\	Me	.
4D#\	sen-	.
=19	=19	=19
2E\	-ti-	.
4E\	-re	.
=20	=20	=20
2F#\	vim	.
4F#\	do-	.
=21	=21	=21
2G\	-lo-	.
4G\	-ris	.
=22	=22	=22
2A\	Fac	.
4r	.	.
=23	=23	=23
4c\	ut	.
4A\	te-	.
4Fn\	-cum	.
=24	=24	=24
2.C\	lu-	.
=25	=25	=25
!LO:TX:a:t=h	!	!
!LO:TX:t=P:problem:dopisane ołówkiem	!	!
[2.BB\	-ge-	.
=26||	=26||	=26||
4BB\]	-am	.
4r	.	.
4r	.	.
=27||	=27||	=27||
*k[f#c#g#d#]	*	*
!LO:TX:t=P:problem:dopisane ołówkiem	!	!
!LO:TX:a:t=dol	!	!
2E\	Fac,	p
4E\	ut	.
=28	=28	=28
4D#\	ar-	.
4D#\	-de-	.
4D#\	-at	.
=29	=29	=29
4E\	cor	.
4AA/	.	.
!LO:TX:t=P:problem:dopisane ołówkiem	!	!
4AA/	.	.
=30	=30	=30
4BB/	me-	.
4E\	-um	.
4r	.	.
=31	=31	=31
2E\	In	.
4E\	a-	.
=32	=32	=32
2D#\	-man-	.
4C#\	-do	.
=33	=33	=33
2F#\	Chris-	.
4F#\	-tum	.
=34	=34	=34
4BB/	De-	.
4E\	-um	.
4r	.	.
=35!|:	=35!|:	=35!|:
!LO:TX:t=P:problem:dopisane ołówkiem	!	!
4AA/	Ut	p
4AA/	si-	.
4C#\	-bi	.
=36	=36	=36
2E\	com-	.
4E\	-pla-	.
=37	=37	=37
(2AA/	-ce-	.
4C#/)	.	.
=38	=38	=38
4E\	-am	.
4r	.	.
4r	.	.
=39	=39	=39
4A\	Ut	.
4A\	si-	.
4G#\	-bi	.
=40	=40	=40
(4F#\	cum	.
4E#X\)	.	.
4F#\	pla-	.
=41	=41	=41
2.BB/	-ce-	.
=42	=42	=42
4E\	-am	.
4r	.	.
4r	.	.
=43:|!	=43:|!	=43:|!
!	!	!LO:DY:a
4B\	A-	ff
4B\	-men	.
4r	.	.
=44	=44	=44
2.BB/	A-	pp
=45	=45	=45
2.E\	-men	.
=46	=46	=46
2.AA/	A-	.
=47	=47	=47
!	!	!LO:DY:a
2.E\	.	<[
=48	=48	=48
4E\	men	.
4r	.	.
4r	.	.
==	==	==
*-	*-	*-
!!!ENC: Andrzej Gręziak
!!!END: 2023-11-03
!!!ENC: Leszek Kubiak
!!!END: 2024-08-04
